X: 1
T: Miss Sarah Drummond of Perth
T: Calum Crubach
R: strathspey
Z: 1999 John Chambers <jc:trillian.mit.edu>
C: Niel Gow
N: Gow p.144; Hunter 68; Scots Guard 177; Skye p.115; OTDT  p.77; BSFC I-49, V-8; Allan's p.12
M: C
L: 1/8
K: ADor
 e | "Am"A<A e>d B<d e2  | "G"d>g B>g d>g B<G | "Am"A<A e>d     B<d e>g |    a<e "G"g>B "Am"A3 :|
^g | "Am"a<a e>a c<a e>f | "G"g<g d>g B<g d>g | "Am"a<a e>a     c<a e>g |    a<e "G"g>B "Am"A3 |]
^g | "Am"a<a e>a c<a e>f | "G"g<g d>g B<g d>g | "Am"a<a e>a "Em"g<b e>g | "F"a<e "G"g>B "Am"A3 |]

%%sep 1 1 500

